X:1
T:Title
%%score { ( 1 4 ) | ( 2 3 ) }
L:1/8
M:6/8
K:D
V:1 treble nm="Grand Piano"
V:4 treble 
V:2 treble 
V:3 treble 
V:1
 z3 z2[Q:1/4=84] A | [Fd]cB AF[FA] | [GB]AG F2 [DF] | [CE]E[CE] [CA]E[C=F] | %4
[M:5/8] [DF]-[DF]- [DF]3 |[M:1/8] [FA] |[M:3/4] [Fd]c BA F[FA] | [GB]A G F2 F | EA [FB]c cB | %9
[M:5/8] [CA]-[CA]- [CA]3 |[M:1/8] F |[M:3/4] [FA]3 [GA]3 | [FA][DF] [FA][GB] [FA][DF] | %13
 [CE]3 [CE]3 | [CE][FA] [EG] [DF]3 | [FA]3 [GA]3 | [FA][DF] [FA][GB] [FA][DF] | %17
 [CE][DF] [EG][FA] [GB][Ec] |[M:5/8] [Fd]-[Fd]- [Fd]3 |] %19
V:2
 z3 z2 F | z A[A,G] [DF]D[K:bass]A, | z[K:treble] F[A,E] D2[K:bass] A, | z CE, z CA, | %4
[M:5/8] D,F,A, B,A, |[M:1/8] F, |[M:3/4] z[K:treble] A [A,G][DF] DA, | z F [A,E] D2[K:bass] [D,D] | %8
 z E [D,A,][A,E] [F,^D][E,^G,=D] |[M:5/8] [A,,A,]E,C, A,,2 |[M:1/8] D |[M:3/4] D,F, A,E, G,A, | %12
 D,F, A,D, F,A, | A,,C, E,A, E,C, | A,,B,, C,D, F,A, | D,F, A,E, G,A, | D,F, A,D, F,A, | %17
 A,,A, A,A,, A,A, |[M:5/8] z2 A,3 |] %19
V:3
 x6 | .D,3 z3[K:bass] | .D,3[K:treble] z3[K:bass] | .A,,3 .A,3 |[M:5/8] x5 |[M:1/8] x | %6
[M:3/4] D,2[K:treble] z2 z2 | D,2 z2 z2[K:bass] | [C,A,]2 z .E,3 |[M:5/8] x5 |[M:1/8] x | %11
[M:3/4] x6 | x6 | x6 | x6 | x6 | x6 | x6 |[M:5/8] D,B, z D,2 |] %19
V:4
 x6 | x6 | x6 | x6 |[M:5/8] x5 |[M:1/8] x |[M:3/4] x6 | x6 | x6 |[M:5/8] z z2 A,2 |[M:1/8] x | %11
[M:3/4] x6 | x6 | x6 | x6 | x6 | x6 | x6 |[M:5/8] x5 |] %19

